Numix/64/emotes/face-devilish.svg

<?xml version="1.0" encoding="UTF-8" standalone="no"?>
<svg
   xmlns:dc="http://purl.org/dc/elements/1.1/"
   xmlns:cc="http://creativecommons.org/ns#"
   xmlns:rdf="http://www.w3.org/1999/02/22-rdf-syntax-ns#"
   xmlns:svg="http://www.w3.org/2000/svg"
   xmlns="http://www.w3.org/2000/svg"
   xmlns:sodipodi="http://sodipodi.sourceforge.net/DTD/sodipodi-0.dtd"
   xmlns:inkscape="http://www.inkscape.org/namespaces/inkscape"
   width="64px"
   height="64px"
   viewBox="0 0 48 48"
   version="1.1"
   id="svg327"
   inkscape:version="0.91 r"
   sodipodi:docname="face-devilish.svg">
  <metadata
     id="metadata346">
    <rdf:RDF>
      <cc:Work
         rdf:about="">
        <dc:format>image/svg+xml</dc:format>
        <dc:type
           rdf:resource="http://purl.org/dc/dcmitype/StillImage" />
      </cc:Work>
    </rdf:RDF>
  </metadata>
  <defs
     id="defs344" />
  <sodipodi:namedview
     pagecolor="#ffffff"
     bordercolor="#666666"
     borderopacity="1"
     objecttolerance="10"
     gridtolerance="10"
     guidetolerance="10"
     inkscape:pageopacity="0"
     inkscape:pageshadow="2"
     inkscape:window-width="640"
     inkscape:window-height="480"
     id="namedview342" />
  <g
     id="surface1">
    <path
       style=" stroke:none;fill-rule:nonzero;fill:rgb(100%,40.784314%,36.862745%);fill-opacity:1;"
       d="M 42 24 C 42 32.5625 33.941406 39.5 24 39.5 C 14.058594 39.5 6 32.5625 6 24 C 6 15.441406 14.058594 8.5 24 8.5 C 33.941406 8.5 42 15.441406 42 24 Z M 42 24 "
       id="path330" />
    <path
       style=" stroke:none;fill-rule:nonzero;fill:rgb(39.607843%,39.607843%,39.607843%);fill-opacity:1;"
       d="M 16.667969 18.386719 C 15.941406 18.84375 15.5 19.640625 15.5 20.5 C 15.5 21.878906 16.621094 23 18 23 C 19.34375 23 20.445312 21.9375 20.496094 20.59375 Z M 16.667969 18.386719 "
       id="path332" />
    <path
       style=" stroke:none;fill-rule:nonzero;fill:rgb(39.607843%,39.607843%,39.607843%);fill-opacity:1;"
       d="M 31.328125 18.386719 L 27.503906 20.597656 C 27.554688 21.9375 28.65625 23 30 23 C 31.378906 23 32.5 21.878906 32.5 20.5 C 32.5 19.640625 32.058594 18.84375 31.328125 18.386719 Z M 31.328125 18.386719 "
       id="path334" />
    <path
       style=" stroke:none;fill-rule:nonzero;fill:rgb(39.607843%,39.607843%,39.607843%);fill-opacity:1;"
       d="M 29.933594 28 C 29.507812 29.71875 26.980469 30.996094 24 31 L 24 33 C 27.414062 32.996094 30.324219 30.882812 30.894531 28 Z M 29.933594 28 "
       id="path336" />
    <path
       style=" stroke:none;fill-rule:evenodd;fill:rgb(100%,40.784314%,36.862745%);fill-opacity:1;"
       d="M 11 14 L 9 10 L 15 11 Z M 11 14 "
       id="path338" />
    <path
       style=" stroke:none;fill-rule:evenodd;fill:rgb(100%,40.784314%,36.862745%);fill-opacity:1;"
       d="M 37 14 L 39 10 L 33 11 Z M 37 14 "
       id="path340" />
  </g>
</svg>

<svg xmlns="http://www.w3.org/2000/svg" width="64" height="64" viewBox="0 0 48 48">
 <g>
  <path d="m 42 24 c 0 8.563 -8.06 15.5 -18 15.5 c -9.941 0 -18 -6.938 -18 -15.5 c 0 -8.559 8.06 -15.5 18 -15.5 c 9.941 0 18 6.941 18 15.5 m 0 0" style="fill:#ff685d;fill-opacity:1;stroke:none;fill-rule:nonzero"/>
  <path d="m 16.668 18.387 c -0.727 0.457 -1.168 1.254 -1.168 2.113 c 0 1.379 1.121 2.5 2.5 2.5 c 1.344 0 2.445 -1.063 2.496 -2.406 m -3.828 -2.207" style="fill:#646464;fill-opacity:1;stroke:none;fill-rule:nonzero"/>
  <path d="m 31.33 18.387 l -3.824 2.211 c 0.051 1.34 1.152 2.402 2.496 2.402 c 1.379 0 2.5 -1.121 2.5 -2.5 c 0 -0.859 -0.441 -1.656 -1.172 -2.113 m 0 0" style="fill:#646464;fill-opacity:1;stroke:none;fill-rule:nonzero"/>
  <path d="m 29.934 28 c -0.426 1.719 -2.953 2.996 -5.934 3 l 0 2 c 3.414 -0.004 6.324 -2.117 6.895 -5 m -0.961 0" style="fill:#646464;fill-opacity:1;stroke:none;fill-rule:nonzero"/>
  <path d="m 11 14 l -2 -4 l 6 1 m -4 3" style="fill:#ff685d;fill-opacity:1;stroke:none;fill-rule:evenodd"/>
  <path d="m 37 14 l 2 -4 l -6 1 m 4 3" style="fill:#ff685d;fill-opacity:1;stroke:none;fill-rule:evenodd"/>
 </g>
</svg>
